X: 1574
T: Angus Chisholm's
R: polka
M: 2/4
K: Gmajor
B/c/|:d/^c/d/e/ dg|B2 d2|G/F/G/A/ BG|D2 B,2|
C>D ED/C/|B,D G>F|1 EA A/B/c/B/|A/G/F/E/ DB/c/:|2 EA A/B/c/A/|G/F/G/A/ G2||
D/^C/D/E/ DB|D2 B2|G/F/G/A/ Ge|d2 d/B/c/d/|
ee dd|cc B2|c/B/c/d/ c/B/A/G/|F/G/A/B/ A/G/F/E/|
D/^C/D/E/ DB|D2 B2|G/F/G/A/ Ge|d2 dc/d/|
eE E/E/E|dD D/D/D|c/B/A/G/ F/D/E/F/|G2 GB/c/||

